!!!OTL: EINEM DER EINST AUF DER JAGD
!!!ARE: Europa, Mitteleuropa, Deutschland
!!!SCT: B0599
!!!YEM: Copyright 1995, estate of Helmut Schaffrath.
**kern
*ICvox
*Ivox
*M2/4
*k[f#]
*G:
=1
{8b
8b
8a
8a
=2
8.g
16f#
4f#}
=3
{8e
8f#
8g
16f#
16e
=4
4e
4d}
=5
{8d
8d
8g
8b
=6
8dd
16b
16cc
4dd}
=7
{8dd
8a
8a
16b
16cc
=8
4cc
4b}
=9
{8d
8d
8g
8b
=10
8dd
16b
16cc
4dd}
=11
{8dd
8a
8cc
16b
16a
=12
4a
4g}
==
!!!AGN: Staende -, Jaeger - Lied
!!!ONB: ESAC (Essen Associative Code) Database: BOEHME
!!!AMT: simple duple
!!!AIN: vox
!!!EED: Helmut Schaffrath
!!!EEV: 1.0
*-
